X:1
T:A Bruxa (C-Whistle 1 note high)
M:3/4
L:1/8
S:Rosa Michaelson
R:Waltz
Z:Nigel Gatherer
K:Am
"Am"ec BA Bc | e2 c2 Ad | "F"cB F2 c2 | "Em"B6 |\
"Am"ec BA Bc | e2 c2 Ad | "F"cB F2 B2 | "Am"A6 :|\
|: "Am"AB c2 d2 | e6 | "F"fe d2 g2 | "Em"e6 :|
|: "G"gf ed ef | "Am"e2 c2 A2 | ed cB cd | "F"c2 A2 F2 |\
"G"dc BA Bc | B2 F2 E2 | "F"FE F2 "E"^G2 |1 "Am"A2 c2 e2 :|2 "Am"A6 |]
